svg/OSM-icons/emergency #fe0000 °ffffff !label=enemergency,deNotfälle/17002;amenity=first_aid;!label=enfirst aid,deErste Hilfe.svg

<svg xmlns="http://www.w3.org/2000/svg" viewBox="0 0 580 580" enable-background="new 0 0 580 580"><path fill="#111" stroke="#eee" stroke-width="3.408" d="m66.28 1.768c-41.34 0-64.57 21.371-64.57 65.04v450.12c0 40.844 20.894 62.23 62.19 62.23h452.02c41.31 0 62.23-20.316 62.23-62.23v-450.12c0-42.601-20.923-65.04-63.52-65.04-.003 0-448.49-.143-448.35 0z"/><g fill="#fff"><path d="m129.34 240.47h111.13v-111.14h99.06v111.13h111.14v99.06h-111.14v111.13h-99.06v-111.13h-111.13v-99.05"/><path d="m447.51 516h-315.01c-36.11 0-65.49-29.381-65.49-65.49v-321.01c0-36.11 29.38-65.49 65.49-65.49h315.01c36.11 0 65.49 29.38 65.49 65.49v321.01c0 36.11-29.381 65.49-65.49 65.49m-315.01-442c-30.599 0-55.49 24.895-55.49 55.49v321.01c0 30.6 24.895 55.49 55.49 55.49h315.01c30.6 0 55.49-24.895 55.49-55.49v-321.01c0-30.599-24.895-55.49-55.49-55.49h-315.01"/></g></svg>

<?xml version="1.0" encoding="utf-8"?>
<!-- Generator: Adobe Illustrator 15.0.0, SVG Export Plug-In . SVG Version: 6.00 Build 0)  -->
<!DOCTYPE svg PUBLIC "-//W3C//DTD SVG 1.1//EN" "http://www.w3.org/Graphics/SVG/1.1/DTD/svg11.dtd">
<svg version="1.1" xmlns="http://www.w3.org/2000/svg" xmlns:xlink="http://www.w3.org/1999/xlink" x="0px" y="0px" width="580px"
	 height="580px" viewBox="0 0 580 580" enable-background="new 0 0 580 580" xml:space="preserve">
<g id="Layer_2">
	<g id="g1327">
		<path id="path1329" fill="#111111" stroke="#EEEEEE" stroke-width="3.408" d="M66.275,1.768
			c-41.335,0-64.571,21.371-64.571,65.036v450.123c0,40.844,20.894,62.229,62.192,62.229H515.92
			c41.307,0,62.229-20.316,62.229-62.229V66.804c0-42.601-20.923-65.036-63.522-65.036C514.624,1.768,66.133,1.625,66.275,1.768z"/>
	</g>
</g>
<g id="svg2" xmlns:inkscape="http://www.inkscape.org/namespaces/inkscape" xmlns:rdf="http://www.w3.org/1999/02/22-rdf-syntax-ns#" xmlns:svg="http://www.w3.org/2000/svg" xmlns:sodipodi="http://sodipodi.sourceforge.net/DTD/sodipodi-0.dtd" xmlns:cc="http://creativecommons.org/ns#" xmlns:dc="http://purl.org/dc/elements/1.1/" inkscape:output_extension="org.inkscape.output.svg.inkscape" inkscape:version="0.46" sodipodi:docname="waste_bin.svg" sodipodi:version="0.32">
	<path fill="#FFFFFF" d="M129.337,240.472h111.135V129.337h99.056v111.135h111.136v99.055H339.527v111.135h-99.056V339.527H129.337
		V240.472z"/>
	<g>
		<path fill="#FFFFFF" d="M447.506,516H132.494C96.38,516,67,486.619,67,450.506V129.494C67,93.38,96.38,64,132.494,64h315.012
			C483.619,64,513,93.38,513,129.494v321.012C513,486.619,483.619,516,447.506,516z M132.494,74C101.895,74,77,98.895,77,129.494
			v321.012c0,30.6,24.895,55.494,55.494,55.494h315.012c30.6,0,55.494-24.895,55.494-55.494V129.494
			C503,98.895,478.105,74,447.506,74H132.494z"/>
	</g>
</g>
</svg>
